lib/brands/icons/foursquare-alt.svg

<svg xmlns="http://www.w3.org/2000/svg" fill="none" aria-hidden="true" viewBox="0 0 48 48"><g id="foursquare-alt-Icon"><circle id="bg" cx="24" cy="24" r="21" fill="#FA4778"/><path id="foursquare" fill="white" d="M31.2471 14.6155L30.595 17.9117C30.5205 18.2628 30.2037 18.5749 29.8124 18.5749H24.1483C23.5148 18.5749 22.9931 19.121 22.9931 19.7842V20.5058C22.9931 21.169 23.5148 21.7151 24.1483 21.7151H28.9368C29.3839 21.7151 29.7566 22.1637 29.6634 22.6513C29.5702 23.1585 29.0672 25.7331 29.0113 26.0061C28.974 26.2987 28.6759 26.6693 28.2287 26.6693H24.316C23.4962 26.6888 23.3285 26.7083 22.8441 27.3324C22.3596 27.9566 17.9998 33.4994 17.9998 33.4994V14.4594C17.9998 14.0109 18.3538 13.6402 18.7823 13.6402H30.5391C30.949 13.6402 31.3589 14.0694 31.2471 14.6155ZM32.1042 10.5H17.5898C15.5962 10.5 15 12.0799 15 13.0746V37.2212C15 38.6367 16.485 39.7236 17.6457 38.5084C17.6457 38.5084 24.5396 30.102 24.6514 29.9655C24.7632 29.8289 24.8191 29.8289 24.8936 29.8289H29.2535C31.1167 29.8289 31.4707 28.4831 31.6756 27.6639C31.8433 26.9813 33.7624 17.229 34.3586 14.1473C34.8059 11.7678 34.2283 10.5 32.1042 10.5Z"/></g></svg>

<svg xmlns="http://www.w3.org/2000/svg" fill="none" aria-hidden="true" viewBox="0 0 48 48"><circle cx="24" cy="24" r="21" fill="#FA4778"/><path fill="#fff" d="m31.247 14.616-.652 3.296c-.075.35-.391.663-.783.663h-5.664c-.633 0-1.155.546-1.155 1.21v.72c0 .664.522 1.21 1.155 1.21h4.789c.447 0 .82.449.726.936-.093.508-.596 3.082-.652 3.355a.805.805 0 0 1-.782.663h-3.913c-.82.02-.988.04-1.472.663C22.36 27.957 18 33.5 18 33.5V14.46c0-.448.354-.819.782-.819H30.54c.41 0 .82.43.708.976Zm.857-4.116H17.59c-1.994 0-2.59 1.58-2.59 2.575V37.22c0 1.416 1.485 2.503 2.646 1.287 0 0 6.894-8.406 7.005-8.543.112-.136.168-.136.243-.136h4.36c1.863 0 2.217-1.346 2.422-2.165.167-.683 2.086-10.435 2.683-13.517.447-2.38-.13-3.647-2.255-3.647Z"/></svg>
